src/assets/fleet-icons/copy-squares.svg

<svg width="24" height="24" viewBox="0 0 24 24" fill="none" xmlns="http://www.w3.org/2000/svg">
    <path
        d="M6.5 15.25C5.5335 15.25 4.75 14.4665 4.75 13.5V6.75C4.75 5.64543 5.64543 4.75 6.75 4.75H13.5C14.4665 4.75 15.25 5.5335 15.25 6.5"
        stroke="currentColor" stroke-width="1.5" stroke-linecap="round" stroke-linejoin="round" />
    <path
        d="M8.75 10.75C8.75 9.64543 9.64543 8.75 10.75 8.75H17.25C18.3546 8.75 19.25 9.64543 19.25 10.75V17.25C19.25 18.3546 18.3546 19.25 17.25 19.25H10.75C9.64543 19.25 8.75 18.3546 8.75 17.25V10.75Z"
        stroke="currentColor" stroke-width="1.5" stroke-linecap="round" stroke-linejoin="round" />
</svg>

<svg width="24" height="24" fill="none" xmlns="http://www.w3.org/2000/svg">
    <path d="M6.5 15.25a1.75 1.75 0 0 1-1.75-1.75V6.75a2 2 0 0 1 2-2h6.75c.966 0 1.75.784 1.75 1.75"
        stroke="currentColor" stroke-width="1.5" stroke-linecap="round" stroke-linejoin="round" />
    <path d="M8.75 10.75a2 2 0 0 1 2-2h6.5a2 2 0 0 1 2 2v6.5a2 2 0 0 1-2 2h-6.5a2 2 0 0 1-2-2v-6.5Z"
        stroke="currentColor" stroke-width="1.5" stroke-linecap="round" stroke-linejoin="round" />
</svg>
